ufans-frontend-package/public/assets/images/new-chat/back-icon.svg

<svg xmlns="http://www.w3.org/2000/svg" version="1.1" xmlns:xlink="http://www.w3.org/1999/xlink" xmlns:svgjs="http://svgjs.com/svgjs" width="512" height="512" x="0" y="0" viewBox="0 0 512 512" style="enable-background:new 0 0 512 512" xml:space="preserve" class=""><g><path d="m512 256c0-49.3-2.5-93.9-9.9-119.7-8.7-30.2-18.2-57.8-44.7-82.2-31.6-29.1-60.3-38.9-101.9-47-30.9-6-66.9-7.3-89.4-7.2-6.7 0-13.4 0-20.1 0-22.5-.1-58.5 1.2-89.4 7.2-41.6 8.1-70.3 17.9-101.9 47-26.5 24.4-36 52-44.7 82.2-7.5 25.8-10 70.4-10 119.6v.1.1c0 49.2 2.5 93.8 9.9 119.6 8.7 30.2 18.2 57.8 44.7 82.2 31.6 29.1 60.3 38.9 101.9 47 36 7 78.8 7.6 99.2 7l.2.2.2-.2c20.5.6 63.3-.1 99.2-7 41.6-8.1 70.3-17.9 101.9-47 26.5-24.4 36-52 44.7-82.2 7.6-25.8 10.1-70.4 10.1-119.7z" fill="#6561e3" data-original="#379df1" class=""></path><path d="m398.2 234.2h-231.6l93.8-93.8c8.6-8.6 8.6-22.4 0-30.9-8.6-8.6-22.4-8.6-30.9 0l-131.1 131c-8.6 8.6-8.6 22.4 0 30.9l131.2 131.2c4.3 4.3 9.8 6.4 15.5 6.4 5.6 0 11.2-2.1 15.5-6.4 8.6-8.6 8.6-22.4 0-30.9l-93.8-93.8h231.4c12.1 0 21.9-9.7 21.9-21.9-.1-12.1-9.8-21.8-21.9-21.8z" fill="#ffffff" data-original="#ffffff" class=""></path></g></svg>

<svg xmlns="http://www.w3.org/2000/svg" width="512" height="512.205" viewBox="0 0 512 512.205">
  <g id="back-icon" transform="translate(0 0.105)">
    <path id="Path_1" data-name="Path 1" d="M512,256c0-49.3-2.5-93.9-9.9-119.7-8.7-30.2-18.2-57.8-44.7-82.2C425.8,25,397.1,15.2,355.5,7.1c-30.9-6-66.9-7.3-89.4-7.2H246c-22.5-.1-58.5,1.2-89.4,7.2C115,15.2,86.3,25,54.7,54.1c-26.5,24.4-36,52-44.7,82.2C2.5,162.1,0,206.7,0,255.9v.2c0,49.2,2.5,93.8,9.9,119.6,8.7,30.2,18.2,57.8,44.7,82.2,31.6,29.1,60.3,38.9,101.9,47,36,7,78.8,7.6,99.2,7l.2.2.2-.2c20.5.6,63.3-.1,99.2-7,41.6-8.1,70.3-17.9,101.9-47,26.5-24.4,36-52,44.7-82.2C509.5,349.9,512,305.3,512,256Z" fill="#e44499"/>
    <path id="Path_2" data-name="Path 2" d="M398.2,234.2H166.6l93.8-93.8a21.85,21.85,0,1,0-30.9-30.9L98.4,240.5a21.729,21.729,0,0,0,0,30.9L229.6,402.6a21.885,21.885,0,0,0,31-30.9l-93.8-93.8H398.2a21.85,21.85,0,0,0,0-43.7Z" fill="#fff"/>
  </g>
</svg>
